icons/code-view.svg

<svg viewBox="0 0 24 24" fill="currentColor" xmlns="http://www.w3.org/2000/svg"><path d="M16.95 8.46448L18.3642 7.05026L23.3139 12L18.3642 16.9498L16.95 15.5355L20.4855 12L16.95 8.46448ZM7.05048 8.46448L3.51495 12L7.05048 15.5355L5.63627 16.9498L0.686523 12L5.63627 7.05026L7.05048 8.46448Z"/></svg>

<svg xmlns="http://www.w3.org/2000/svg" viewBox="0 0 24 24">
    <g>
        <path fill="none" d="M0 0h24v24H0z"/>
        <path d="M16.95 8.464l1.414-1.414 4.95 4.95-4.95 4.95-1.414-1.414L20.485 12 16.95 8.464zm-9.9 0L3.515 12l3.535 3.536-1.414 1.414L.686 12l4.95-4.95L7.05 8.464z"/>
    </g>
</svg>
